_includes/icons/ios-hand.svg

<svg fill="#666" height="50" viewBox="0 0 50 50" width="50" xmlns="http://www.w3.org/2000/svg"><path d="m26 0c-2.460937 0-4 2.078125-4 4v.59375c-.628906-.355469-1.3125-.59375-2-.59375-1.875 0-3.964844 1.402344-4.09375 3.84375v.0625 21.46875l-3.25-3.90625c-.007812-.019531-.019531-.042969-.03125-.0625-1.671875-1.800781-4.539062-1.769531-6.3125-.03125-.007812.007813.007813.023438 0 .03125-1.765625 1.660156-1.777344 4.449219-.09375 6.21875l.0625.09375 11.53125 14.78125c1.6875 2.25 4.300781 3.5 7.09375 3.5h8.09375c4.945313 0 9-4.054687 9-9v-29c0-.746094-.039062-1.886719-.5625-2.96875-.523437-1.082031-1.726562-2.03125-3.4375-2.03125-.792969 0-1.4375.265625-2 .59375v-.59375c0-1.519531-.265625-2.742187-.96875-3.65625-.703125-.914062-1.832031-1.34375-3.03125-1.34375-.90625 0-1.628906.296875-2.25.6875-.515625-1.449219-1.851562-2.6875-3.75-2.6875zm0 2c1.339844 0 2 1.125 2 2v18h2v-16c0-.535156.132813-1.066406.40625-1.40625.273438-.339844.675781-.59375 1.59375-.59375.800781 0 1.171875.175781 1.46875.5625s.53125 1.15625.53125 2.4375v17h2v-12c0-.652344.066406-1.523437.34375-2.09375.277344-.570312.566406-.90625 1.65625-.90625s1.378906.335938 1.65625.90625c.277344.570313.34375 1.441406.34375 2.09375v29c0 3.855469-3.144531 7-7 7h-8.09375c-2.207031 0-4.1875-.9375-5.5-2.6875-.011719-.011719-.019531-.019531-.03125-.03125l-11.59375-14.90625c-.019531-.03125-.039062-.0625-.0625-.09375-1.03125-1.03125-1.019531-2.519531-.03125-3.4375l.03125-.03125c1.019531-1.019531 2.484375-1.019531 3.40625-.0625l.03125.03125 4.96875 5.96875c.269531.335938.722656.464844 1.128906.316406.402344-.152343.667969-.542968.652344-.972656v-24.1875c.089844-1.335937 1.179688-1.90625 2.09375-1.90625.460938 0 1 .175781 1.375.5s.625.765625.625 1.5v15h2v-19c0-.875.660156-2 2-2z"/></svg>

<svg xmlns="http://www.w3.org/2000/svg" viewBox="0 0 50 50" width="50" height="50" fill="#666"><path d="M 26 0 C 23.539063 0 22 2.078125 22 4 L 22 4.59375 C 21.371094 4.238281 20.6875 4 20 4 C 18.125 4 16.035156 5.402344 15.90625 7.84375 C 15.90625 7.863281 15.90625 7.886719 15.90625 7.90625 L 15.90625 29.375 L 12.65625 25.46875 C 12.648438 25.449219 12.636719 25.425781 12.625 25.40625 C 10.953125 23.605469 8.085938 23.636719 6.3125 25.375 C 6.304688 25.382813 6.320313 25.398438 6.3125 25.40625 C 4.546875 27.066406 4.535156 29.855469 6.21875 31.625 L 6.28125 31.71875 L 17.8125 46.5 C 19.5 48.75 22.113281 50 24.90625 50 L 33 50 C 37.945313 50 42 45.945313 42 41 L 42 12 C 42 11.253906 41.960938 10.113281 41.4375 9.03125 C 40.914063 7.949219 39.710938 7 38 7 C 37.207031 7 36.5625 7.265625 36 7.59375 L 36 7 C 36 5.480469 35.734375 4.257813 35.03125 3.34375 C 34.328125 2.429688 33.199219 2 32 2 C 31.09375 2 30.371094 2.296875 29.75 2.6875 C 29.234375 1.238281 27.898438 0 26 0 Z M 26 2 C 27.339844 2 28 3.125 28 4 L 28 22 L 30 22 L 30 6 C 30 5.464844 30.132813 4.933594 30.40625 4.59375 C 30.679688 4.253906 31.082031 4 32 4 C 32.800781 4 33.171875 4.175781 33.46875 4.5625 C 33.765625 4.949219 34 5.71875 34 7 L 34 24 L 36 24 L 36 12 C 36 11.347656 36.066406 10.476563 36.34375 9.90625 C 36.621094 9.335938 36.910156 9 38 9 C 39.089844 9 39.378906 9.335938 39.65625 9.90625 C 39.933594 10.476563 40 11.347656 40 12 L 40 41 C 40 44.855469 36.855469 48 33 48 L 24.90625 48 C 22.699219 48 20.71875 47.0625 19.40625 45.3125 C 19.394531 45.300781 19.386719 45.292969 19.375 45.28125 L 7.78125 30.375 C 7.761719 30.34375 7.742188 30.3125 7.71875 30.28125 C 6.6875 29.25 6.699219 27.761719 7.6875 26.84375 C 7.699219 26.832031 7.707031 26.824219 7.71875 26.8125 C 8.738281 25.792969 10.203125 25.792969 11.125 26.75 C 11.136719 26.761719 11.144531 26.769531 11.15625 26.78125 L 16.125 32.75 C 16.394531 33.085938 16.847656 33.214844 17.253906 33.066406 C 17.65625 32.914063 17.921875 32.523438 17.90625 32.09375 L 17.90625 7.90625 C 17.996094 6.570313 19.085938 6 20 6 C 20.460938 6 21 6.175781 21.375 6.5 C 21.75 6.824219 22 7.265625 22 8 L 22 23 L 24 23 L 24 4 C 24 3.125 24.660156 2 26 2 Z"/></svg>
